!!!COM: Bach, Johann Sebastian
!!!OTA: Das wohltemperirte Clavier
!!!OPR: Das wohltemperierte Klavier
!!!OTL: Fuga 2, Vol. 2
!!!XEN: The Well-Tempered Clavier, Volume 2, Fugue 2.
!!!ONB: C minor, 4-part
!!!SCT: BWV 871b
!!!YEC: Copyright 1994, David Huron
!!!YEM: Rights to all derivative electronic formats reserved.
!!!RNB: The texture increases to five voices in the final two measures.
**kern	**kern	**kern	**kern
*staff2	*staff2	*staff1	*staff1
*clefF4	*clefF4	*clefG2	*clefG2
*k[b-e-a-]	*k[b-e-a-]	*k[b-e-a-]	*k[b-e-a-]
*M4/4	*M4/4	*M4/4	*M4/4
*c:	*c:	*c:	*c:
*MM50	*MM50	*MM50	*MM50
=1	=1	=1	=1
1r	1r	8r	1r
.	.	8g	.
.	.	8e-	.
.	.	8f	.
.	.	8g	.
.	.	8c	.
.	.	8f	.
.	.	16e-	.
.	.	16d	.
=2	=2	=2	=2
1r	1r	4e-	8r
.	.	.	8cc
.	.	8d	8b-
.	.	8c	8cc
.	.	4B-	8dd
.	.	.	8g
.	.	4AnM	8cc
.	.	.	16b-
.	.	.	16an
=3	=3	=3	=3
1r	1r	8G	4b-
.	.	4g	.
.	.	.	4a-
.	.	4f	.
.	.	.	8g
.	.	4e-	8cc
.	.	.	[4f
.	.	16d	.
.	.	16c	.
=4	=4	=4	=4
1r	8r	4Bn	8f]
.	8G	.	16e-
.	.	.	16d
.	8E-	2c	8g
.	8F	.	8f
.	8G	.	4e-
.	8C	.	.
.	8F	4Bn	4d
.	16E-	.	.
.	16D	.	.
=5	=5	=5	=5
1r	16E-	4c	8c
.	16G	.	.
.	16C	.	8g
.	16D	.	.
.	16E-	8r	[4cc
.	16F	.	.
.	16G	8e-	.
.	16An	.	.
.	16B-	16d	8cc]
.	16d	16f#	.
.	16G	8g	16b-
.	16A	.	16cc
.	16B-	4r	16dd
.	16c	.	16een
.	16d	.	16ffn
.	16en	.	16gg
=6	=6	=6	=6
1r	8f	2r	16aa-
.	.	.	16ff
.	8A-	.	16ccc
.	.	.	16bb-
.	8F	.	16aa-
.	.	.	16gg
.	8A-	.	16ff
.	.	.	16ee-
.	8B-	8r	16dd
.	.	.	16b-
.	8r	8d	16ff
.	.	.	16ee-
.	4r	8B-	16dd
.	.	.	16cc
.	.	8d	16b-
.	.	.	16a-
=7	=7	=7	=7
1r	8r	16e-	8g
.	.	16c	.
.	8C	16a-	8r
.	.	16g	.
.	8BBn	16f	4r
.	.	16e-	.
.	8C	16d	.
.	.	16c	.
.	8D	16Bn	2r
.	.	16f	.
.	8GG	16e-	.
.	.	16d	.
.	8C	16e-	.
.	.	16a-	.
.	16BB	16g	.
.	16AAn	16f	.
=8	=8	=8	=8
1r	8BBn	16dd	8r
.	.	16cc	.
.	8GG	[8dd	16r
.	.	.	16gg
.	8C	16dd]	8.ee-
.	.	16bn	.
.	8AA-	[8cc	.
.	.	.	16ff
.	8.EE-	16cc]	8gg
.	.	16b	.
.	.	[8cc	8cc
.	16A-	.	.
.	8D	16cc]	8ff
.	.	8.b	.
.	8G	.	16ee-
.	.	.	16dd
=9	=9	=9	=9
1r	8.C	16cc	8ee-
.	.	16g	.
.	.	[8a-	8a-
.	16F	.	.
.	8BB-	16a-]	8dd-
.	.	[8.g	.
.	8E-	.	16cc
.	.	.	16b-
.	8.AA-	16g]	8cc
.	.	16en	.
.	.	[8f	8f
.	16D-	.	.
.	8GG	16f]	8b-
.	.	8.e	.
.	8C	.	16a-
.	.	.	16g
=10	=10	=10	=10
1r	16FF	8f	8.a-
.	16C	.	.
.	[8F	8c	.
.	.	.	16a-
.	16F]	8Bn	8d
.	16E-	.	.
.	16D	8c	8e-
.	16C	.	.
.	16BBn	8d	8f
.	16GG	.	.
.	16C	8G	4e-
.	16BB-	.	.
.	16AA-	8c	.
.	16C	.	.
.	8DD	16Bn	[8f
.	.	16An	.
=11	=11	=11	=11
1r	8.EE-	16G	8f]
.	.	16Bn	.
.	.	[8c	8e-
.	16CC	.	.
.	8FF	16c]	8.a-
.	.	16c	.
.	8BB-	[8d	.
.	.	.	16a-
.	8BBn	16d]	8.g
.	.	16d	.
.	8C	[8e-	.
.	.	.	16g
.	8AA-	16e-]	8.cc
.	.	16f	.
.	8BB-	8g-	.
.	.	.	[16b-
=12	=12	=12	=12
1r	8C	8en	16b-]
.	.	.	16b-
.	8FF	16r	[8a-
.	.	16f	.
.	8BB-	[4d-	16a-]
.	.	.	16g
.	16AA-	.	16a-
.	16GG	.	16b-
.	8AA-	16d-]	8en
.	.	16c	.
.	16A-	[8f	16r
.	16F	.	16a-
.	8B-	16f]	8.dd-
.	.	16g	.
.	8c	8a-	.
.	.	.	[16cc
=13	=13	=13	=13
1r	8D	8f#	16cc]
.	.	.	16cc
.	8G	16r	[8b-
.	.	16g	.
.	8C	[4e-	16b-]
.	.	.	16an
.	16BB-	.	16b-
.	16AAn	.	16cc
.	8BB-	16e-]	8f#
.	.	8d	.
.	8E-	.	[8g
.	.	16c	.
.	8C	8B-	16g]
.	.	.	8g
.	8D	8An	.
.	.	.	16f#
=14	=14	=14	=14
1r	8GG	8G	8g
.	8r	8r	8gg
.	4r	4g	8ee-
.	.	.	8ff
.	2r	4e-	8gg
.	.	.	8cc
.	.	4f	8ff
.	.	.	16ee-
.	.	.	16dd
=15	=15	=15	=15
1r	8r	4g	16ee-
.	.	.	16dd
.	8G	.	16cc
.	.	.	16bn
.	8A-	4c	16cc
.	.	.	16ee-
.	8G	.	16ff
.	.	.	16gg
.	8F	4f	16aa-
.	.	.	16cc
.	8d	.	16b
.	.	.	16an
.	8G	8e-	16b
.	.	.	16gg
.	16An	8d	16ff
.	16Bn	.	16gg
=16	=16	=16	=16
1r	16c	8e-	8ee-
.	16d	.	.
.	16e-	8cc	8r
.	16f	.	.
.	16g	8b-	4r
.	16e-	.	.
.	16d	8cc	.
.	16c	.	.
.	16B-	8dd	8r
.	16An	.	.
.	[8B-	8g	8gg
.	16B-]	8cc	8een
.	16An	.	.
.	16d	16b-	8ff#
.	16c	16an	.
=17	=17	=17	=17
1r	16B-	8b-	8gg
.	16G	.	.
.	8c	16a-	8cc
.	.	16g	.
.	8An	16cc	8ff
.	.	16c	.
.	8Bn	[8g	16ee-
.	.	.	16dd
.	8c	16g]	8.ee-
.	.	16g	.
.	8F	8an	.
.	.	.	16ee-
.	8B-	16b-	8dd
.	.	16cc	.
.	16A-	8dd-	8een
.	16G	.	.
=18	=18	=18	=18
1r	8An	16r	8ff
.	.	16cc	.
.	[8d	16b-	8b-
.	.	16a-	.
.	16d]	8g	8ee-
.	16c	.	.
.	16f	8an	16dd
.	16e-	.	16cc
.	16d	8b-	8dd
.	16c	.	.
.	[8d-	8e-	8g
.	16d-]	8a-	[4ee-
.	16c	.	.
.	16B-	16g	.
.	16A-	16f	.
=19	=19	=19	=19
4r	8B-	8.g	16ee-]
.	.	.	16ee-
.	8Bn	.	[8dd
.	.	16f	.
4G	8c	8e-	16dd]
.	.	.	16cc
.	8d	8d	8bn
4E-	16G	8c	8cc
.	16c	.	.
.	16B	8ee-	8gg
.	16c	.	.
4F	16c	4a-	8dd
.	16B	.	.
.	[8c	.	16ee-
.	.	.	16ff
=20	=20	=20	=20
4G	8c]	16r	8ee-
.	.	8g	.
.	8Bn	.	8dd
.	.	16f	.
4C	[4c	8e-	16r
.	.	.	8cc
.	.	8en	.
.	.	.	16b-
4F	8c]	16r	8.a-
.	.	16f	.
.	8Bn	8d	.
.	.	.	16a-
8E-	8.c	16r	[4g
.	.	16e-	.
8D	.	[8f	.
.	[16B	.	.
=21	=21	=21	=21
8.E-	16B]	8f]	4g]
.	16G	.	.
.	[8c	[8e-	.
16G	.	.	.
8A-	8c]	16e-]	[2cc
.	.	16en	.
8G	8B-	16f	.
.	.	16g	.
8F	16A-	4a-	.
.	16g	.	.
8d	16f	.	.
.	16e-	.	.
8G	[4d	8g	16cc]
.	.	.	16bn
16An	.	[8f	16cc
16Bn	.	.	16dd
=22	=22	=22	=22
8c	8d]	16f]	8g
.	.	8e-	.
8C	8c	.	8a-
.	.	[16f	.
8BBn	8d	16f]	8.g
.	.	16f	.
8C	8c	8e-	.
.	.	.	16an
8D	8F	16r	8b-
.	.	16f	.
8GG	4G	16e-	8bn
.	.	16d	.
8C	.	4e-	16r
.	.	.	16g
16BB	8An	.	16cc
16AAn	.	.	16f#
=23	=23	=23	=23
8BBn	4G	16r	8g
.	.	8d	.
8C	.	.	8d
.	.	[16c	.
8FF	8r	16c]	4d
.	.	16An	.
8GG	16r	8Bn	.
.	16F	.	.
8CC	8E-	8c	8c
8r	8r	8g	8r
4r	4r	8e-	8r
.	.	8f	8cc
=24	=24	=24	=24
2r	8r	8g	8bn
.	8e-	8c	8cc
.	8Bn	8f	8dd
.	8c	16e-	8g
.	.	16d	.
8C	8G	8en	8cc
8r	8r	8f	16b-
.	.	.	16a-
4r	4r	8g	8b-
.	.	16f	8cc
.	.	16e	.
=25	=25	=25	=25
2r	8r	8f	8a-
.	8d-	8g	8b-
.	8G	8en	8cc
.	8A-	8f	8f
8C	8En	8g	8b-
8r	8c	8c	16a-
.	.	.	16g
4r	8A-	8f	8a-
.	8B-	16e	[8g
.	.	16d	.
=26	=26	=26	=26
8r	8c	8en	8g]
*	*	*	*strophe
*	*	*	*^
*	*	*	*S/sic	*S/ossia
8C	8F	8e-	16anxx	32anxx
.	.	.	.	32b-xx
.	.	.	32b-xx	16ccxx
.	.	.	32ccxx	.
*	*	*	*S/fin	*S/fin
*	*	*	*v	*v
*	*	*	*S-
8D-	8B-	8d-	8f
8C	16A-	8e-	8cc
.	16G	.	.
8BBn	8A-	8f	8ddn
8F	8G	16e-	16cc
.	.	16dn	16bn
16E-	8G	8e-	4cc
16Dn	.	.	.
16C	8e-	8g	.
32D	.	.	.
32E-	.	.	.
=27	=27	=27	=27
!! Five voices:
*	*	*^	*
4FF#	4r	4r	4r	16r
.	.	.	.	16dd
.	.	.	.	16ee-
.	.	.	.	16bn
4r	8.r	8r	16r	[4cc
.	.	.	[8.an	.
.	.	[8f#	.	.
.	16d	.	.	.
16r	4e-	4f#]	4a]	4cc]
16Bn	.	.	.	.
16c	.	.	.	.
16F#	.	.	.	.
8G	8r	8r	8r	8r
8GG	8d	8fn	8g	8b
=28	=28	=28	=28	=28
1CC 1C	1c	1e-	1g	1cc
==	==	==	==	==
*-	*-	*-	*-	*-
!!!CDT: 1685/3/-1750/7/28
!!!OCY: Deutschland
!!!PPP: Leipzig
!!!ODT: 1738//-1739//
!!!PDT: 1739//-1742//
!!!AFR: fuga; fugue
!!!AST: polyphony
!!!AMT: simple quadruple
!!!SCA: Bach-Werke-Verzeichnis
!!!YOR: Bach Gesellschaft
!!!SMS: British Library, various
!!!AIN: cemba; clavi
!!!EEV: 1.0
!!!RDT: 1986 November 25
!!!YER: 1994 August 10
!!!EFL: 26/48
!!!VTS: 845774239
